!!!OTL: 732. Auf deinen Hoehn!
!!!COM: Volksweise
!!!ARE: Europa, Mitteleuropa, Deutschland; Schottland
!!!SCT: B0732
!!!TXL: @@DE
!!!YEM: Copyright 1995, estate of Helmut Schaffrath.
**kern	**text
*ICvox	*
*Ivox	*
*clefG2	*
*M2/4	*
*k[b-e-a-]	*
*E-:	*
!LO:TX:a:t=Langſam und getragen.	!
{8b-	Auf
=1	=1
4ee-	dei-
8ddL	-nen
8ccJ	.
=2	=2
4b-}	Höhn,
{8cc	du
8ee-	mein
=3	=3
8g	lie-
8g	-bes
8a-	Va-
8f	-ter-
=4	=4
4.e-}	-land,
{8b-	da
=5	=5
4ee-	blüht
8ddL	ſo
8ccJ	.
=6	=6
4b-}	ſchön
{8cc	Al-
8ee-	-pen-
=7	=7
8g	-roſ'
8g	an
8a-	Ber-
8f	-ges-
=8	=8
4.e-}	-wand.
{8g	Die
=9	=9
8f	Ro-
8b-	-ſen
8dd	blühn
8ff	ſo
=10	=10
4.ff}	hell,
{8ee-	ſo
=11	=11
8ee-q	.
8dd	hell
8b-	im
8ddq	.
8cc	Son-
8an	-nenſchein
=12	=12
4.b-}	.
{16ccL	und
16ddJ	.
=13	=13
4ee-	lieb-
8dd	-li-
8cc	-ches
=14	=14
4b-}	Grün
{8ccL	ſchließt
8ee-J	.
=15	=15
8g	rings
8g	die
16b-L	Blumen
16a-J	.
8f	.
=16	=16
4.e-;}	ein.
==	==
!!!AGN: Heimat - Lied
!!!GTL: Auslaendische Weisen, die in Deutschland gesungen wurden
!!!ONB: ESAC (Essen Associative Code) Database: BOEHME
!!!AMT: simple duple
!!!AIN: vox
!!!EED: Helmut Schaffrath
!!!EEV: 1.0
!!Schottiſche Volksweiſe. 1800.
!!@@COMMENT:"Das ſchottiſche Volkslied, komponirt von Jordan 1800, iſt überſchrieben "The blue bell-of Scotland". Anfang: O 
!!where and oh where! Eine ſchöne Ueberſetʒung (des Mädchens Klage) giebt Erk (Liedertafel 266)."
!!@@END:
!!!URL-scan: https://archive.org/details/BoehmeVtLieder1895/page/n585/mode/2up
!!!ENC: Anna Maria Matuszewska
!!!EEV: 2024/18/07
*-	*-
